icons/op-add-attachment-24.svg

<svg width="24" height="24" viewBox="0 0 24 24" fill="none" xmlns="http://www.w3.org/2000/svg">
<path d="M16.5417 3.44792C17.2252 3.44792 17.8806 3.7211 18.3639 4.20735C18.6033 4.44815 18.7933 4.73311 18.9229 5.04779C19.0524 5.36247 19.1191 5.69975 19.1191 6.04037C19.1191 6.38099 19.0524 6.71827 18.9229 7.03295C18.7933 7.34762 18.6033 7.63353 18.3639 7.87433L9.74997 16.5415C9.54568 16.748 9.27392 16.8621 9.00216 16.8621C8.73508 16.8621 8.47175 16.7518 8.26559 16.5491C8.26491 16.5477 8.26349 16.5456 8.2615 16.5427C8.25802 16.5375 8.25281 16.5297 8.24684 16.5189C8.15969 16.3473 8.11284 16.1578 8.11002 15.9654C8.11213 15.6812 8.22522 15.4093 8.4249 15.2083L16.0446 7.54054C16.1368 7.45403 16.2043 7.3441 16.2397 7.22232C16.2752 7.10053 16.2773 6.97137 16.246 6.84844C16.2151 6.72529 16.1517 6.61281 16.0625 6.52287C15.9734 6.43293 15.8618 6.36885 15.7394 6.33738C15.6171 6.30592 15.4886 6.30823 15.3675 6.34407C15.2464 6.37991 15.1371 6.44796 15.0512 6.54105L7.43062 14.2078C6.9705 14.6708 6.70436 15.3054 6.70436 15.9654C6.70578 16.2696 6.75902 16.5713 6.86179 16.8574C6.94801 17.0988 7.08108 17.3572 7.26475 17.542C7.49218 17.7733 7.76269 17.9572 8.0608 18.0832C8.35892 18.2092 8.6788 18.2749 9.00216 18.2765C9.65622 18.2729 10.2822 18.0088 10.7433 17.542L19.3582 8.87381C19.8622 8.37867 20.2265 7.75782 20.4141 7.07465C20.6016 6.39148 20.6055 5.67047 20.4256 4.98525C20.2461 4.29996 19.8892 3.67485 19.3912 3.17374C18.8931 2.67263 18.2719 2.31348 17.5908 2.13295C16.9098 1.95184 16.1932 1.95583 15.5142 2.14452C14.8353 2.3332 14.2182 2.69982 13.7261 3.20693L4.6146 12.3748C3.57433 13.4387 2.99401 14.8731 3.00005 16.3656C3.00609 17.858 3.598 19.2876 4.64684 20.343C5.69569 21.3983 7.1165 21.9939 8.59978 22C10.0831 22.006 11.5086 21.4221 12.566 20.3754L14.1235 18.8074C14.2514 18.6739 14.3222 18.4953 14.3205 18.3098C14.3188 18.1244 14.2448 17.9471 14.1145 17.816C13.9841 17.685 13.8078 17.6107 13.6235 17.6091C13.4392 17.6076 13.2617 17.679 13.1292 17.8079L11.5717 19.375C10.7809 20.1707 9.70825 20.6178 8.58983 20.6178C7.4714 20.6178 6.39878 20.1707 5.60794 19.375C4.81709 18.5793 4.3728 17.5 4.3728 16.3747C4.3728 15.2493 4.81709 14.1701 5.60794 13.3743L14.7195 4.20735C15.2028 3.7211 15.8582 3.44792 16.5417 3.44792Z" fill="#636C76"/>
<path d="M18.2 13.7C18.2 13.3134 17.8866 13 17.5 13C17.1134 13 16.8 13.3134 16.8 13.7V15.8H14.7C14.3134 15.8 14 16.1134 14 16.5C14 16.8866 14.3134 17.2 14.7 17.2H16.8V19.3C16.8 19.6866 17.1134 20 17.5 20C17.8866 20 18.2 19.6866 18.2 19.3V17.2H20.3C20.6866 17.2 21 16.8866 21 16.5C21 16.1134 20.6866 15.8 20.3 15.8H18.2V13.7Z" fill="#636C76"/>
</svg>

<svg xmlns="http://www.w3.org/2000/svg" width="24" height="24" viewBox="0 0 24 24"><path d="M16.542 3.448a2.57 2.57 0 0 1 1.822.759 2.605 2.605 0 0 1 0 3.667L9.75 16.541a1.058 1.058 0 0 1-.748.321c-.267 0-.53-.11-.736-.313l-.005-.006-.014-.024a1.27 1.27 0 0 1-.137-.554c.002-.284.115-.556.315-.757l7.62-7.667a.718.718 0 0 0 .201-.693.7.7 0 0 0-.507-.511.701.701 0 0 0-.688.204l-7.62 7.667a2.502 2.502 0 0 0-.727 1.757c.002.305.055.606.158.892.086.242.219.5.403.685a2.46 2.46 0 0 0 1.737.734 2.462 2.462 0 0 0 1.741-.734l8.615-8.668a4.005 4.005 0 0 0 1.056-1.799 4.016 4.016 0 0 0-1.023-3.901 3.97 3.97 0 0 0-3.877-1.029 3.968 3.968 0 0 0-1.788 1.062l-9.111 9.168A5.673 5.673 0 0 0 3 16.366a5.674 5.674 0 0 0 1.647 3.977A5.607 5.607 0 0 0 8.6 22a5.604 5.604 0 0 0 3.966-1.625l1.557-1.568a.707.707 0 0 0-.5-1.198.703.703 0 0 0-.494.199l-1.557 1.567a4.203 4.203 0 0 1-5.964 0 4.256 4.256 0 0 1-1.235-3c0-1.126.444-2.205 1.235-3.001l9.112-9.167a2.568 2.568 0 0 1 1.822-.759Z"/><path d="M18.2 13.7a.7.7 0 1 0-1.4 0v2.1h-2.1a.7.7 0 1 0 0 1.4h2.1v2.1a.7.7 0 1 0 1.4 0v-2.1h2.1a.7.7 0 1 0 0-1.4h-2.1v-2.1Z"/></svg>
